X: 516
%
U:~=!turn!
T: New Claret
C:
O:Scotland
B:Keith Norman MacDonald : "The Skye collection of the best reels & strathspeys extant" : 1887
Z:Ralph Palmer
R:Slip Jig
M:9/8
L:1/8
K:G
"Moderate."G2 G B2 G (B/c/)dB | G>AG B2 G (B/c/)dB | .E2 .E .C2 .C (E/F/)GE | D>ED TF2 D (F/G/)AF :: G2 G g2 d (B/c/)dB | G>AG g2 d (B/c/)dB |
c2 c e2 c (e/f/)ge | d>fd f2 d (f/g/)af :: gdB GAB gdB | gdB GAB gdB | ece ece (e/f/)ge | fdf fdf (f/g/)af :|


